app/dist/common/images/allianz.svg

<svg height="18" viewBox="0 0 18 18" width="18" xmlns="http://www.w3.org/2000/svg"><path d="m0 0h18v18h-18z" fill="#002f87"/><g fill="#fff"><path d="m10 12h1v-4.42c0-.43-.18-.58-.6-.58h-.4zm-.38 0v-5.42c0-.44-.13-.58-.56-.58h-1.06v.62h.14c.25 0 .23.02.23.38v5zm-1.62 0v-5h-.43c-.42 0-.57.15-.57.58v4.42z"/><path d="m13.15 9c0 2.43-1.75 4.2-4.15 4.2a4.04 4.04 0 0 1 -4.15-4.2c0-2.43 1.75-4.2 4.15-4.2s4.15 1.78 4.15 4.2zm.85 0c0-2.86-2.14-5-5-5s-5 2.14-5 5 2.14 5 5 5 5-2.14 5-5z"/></g></svg>

<!-- by TradingView --><svg width="18" height="18" viewBox="0 0 18 18" xmlns="http://www.w3.org/2000/svg"><path fill="#002F87" d="M0 0h18v18H0z"/><path d="M10 12h1V7.58c0-.43-.18-.58-.6-.58H10v5zm-.38 0V6.58c0-.44-.13-.58-.56-.58H8v.62h.14c.25 0 .23.02.23.38v5h1.25zM8 12V7h-.43c-.42 0-.57.15-.57.58V12h1z" fill="#fff"/><path d="M13.15 9c0 2.43-1.75 4.2-4.15 4.2A4.04 4.04 0 0 1 4.85 9C4.85 6.57 6.6 4.8 9 4.8c2.4 0 4.15 1.78 4.15 4.2zM14 9c0-2.86-2.14-5-5-5S4 6.14 4 9s2.14 5 5 5 5-2.14 5-5z" fill="#fff"/></svg>
